2 Export/Icons/Outlined/Info.svg

<svg xmlns="http://www.w3.org/2000/svg" xmlns:xlink="http://www.w3.org/1999/xlink" width="24" height="24" viewBox="0 0 24 24">
  <defs>
    <path id="info-a" d="M12,17 C11.45,17 11,16.55 11,16 L11,12 C11,11.45 11.45,11 12,11 C12.55,11 13,11.45 13,12 L13,16 C13,16.55 12.55,17 12,17 Z M11.9945455,9 C11.4432649,9 10.9963636,8.55309878 10.9963636,8.00181818 C10.9963636,7.45053759 11.4432649,7.00363636 11.9945455,7.00363636 C12.5458261,7.00363636 12.9927273,7.45053759 12.9927273,8.00181818 C12.9927273,8.55309878 12.5458261,9 11.9945455,9 Z M12,2 C6.48,2 2,6.48 2,12 C2,17.52 6.48,22 12,22 C17.52,22 22,17.52 22,12 C22,6.48 17.52,2 12,2 Z M12,20 C7.59,20 4,16.41 4,12 C4,7.59 7.59,4 12,4 C16.41,4 20,7.59 20,12 C20,16.41 16.41,20 12,20 Z"/>
  </defs>
  <g fill="none" fill-rule="evenodd">
    <polygon points="0 0 24 0 24 24 0 24"/>
    <mask id="info-b" fill="#fff">
      <use xlink:href="#info-a"/>
    </mask>
    <use fill="#000" xlink:href="#info-a"/>
    <g fill="#000" mask="url(#info-b)">
      <rect width="24" height="24"/>
    </g>
  </g>
</svg>

<svg xmlns="http://www.w3.org/2000/svg" xmlns:xlink="http://www.w3.org/1999/xlink" width="24" height="24" viewBox="0 0 24 24">
  <defs>
    <path id="info-a" d="M12 17c-.55 0-1-.45-1-1v-4c0-.55.45-1 1-1s1 .45 1 1v4c0 .55-.45 1-1 1zm-.005-8a.998.998 0 1 1 0-1.996.998.998 0 0 1 0 1.996zM12 2C6.48 2 2 6.48 2 12s4.48 10 10 10 10-4.48 10-10S17.52 2 12 2zm0 18c-4.41 0-8-3.59-8-8s3.59-8 8-8 8 3.59 8 8-3.59 8-8 8z"/>
  </defs>
  <g fill="none" fill-rule="evenodd">
    <polygon points="0 0 24 0 24 24 0 24"/>
    <mask id="info-b" fill="#fff">
      <use xlink:href="#info-a"/>
    </mask>
    <use fill="#000" xlink:href="#info-a"/>
    <g fill="#000" mask="url(#info-b)">
      <rect width="24" height="24"/>
    </g>
  </g>
</svg>
